X:36
T:Wounded Hussar,The. RH.036
R:Air
S:Rev.R.Harrison’s MS,c1815,Cumbria
O:England
A:Temple Sowerby,Cumbria
Z:vmp.Simon Wilson. Review PJH, 2008.
M:6/8
L:1/16
Q:3/8=60
K:Bm
BA|”_sic”G2B2c2 d4cB|cdedcB A2B2c2|\
d2f2d2 fedcBA|F2B2B2 B4BA|!
F2B2c2 d4cB|cdedcB A2B2c2|\
a3^gf2 e2c2A2|F2B2B2 B4:|!
|:Bc|d2f2f2 f4ed|c2e2e2 e4g2|\
f2b2a2 b2c’2d’2|f2b2^a2 b4bc’|!
d’2c’2b2 a2g2f2|{f}e2dca2 A2B2c2|\
d2f2d2 fedcBA|F2B2B2 B4:|

